X: 53
T:Turkey in the Straw - G
M:4/4
L:1/4
R:Reel
K:G
B/2A/2| G/2F/2G/2A/2 GB,/2C/2| D/2E/2D/2B,/2 DG/2A/2| BB  B/2A/2G/2A/2|BA  AB/2A/2|
|:A| B/2dB/2 dd| B/2dB/2 d2| c/2ec/2 ee| c/2ec/2  ef|

